app/images/low-arrow.svg

<svg width="13" height="13" viewBox="0 0 13 13" fill="none" xmlns="http://www.w3.org/2000/svg">
<path d="M9.29645 8.42043C9.29645 8.14422 9.07548 7.95087 8.81307 7.93706L5.55375 8.01992L9.51742 4.05626C9.71077 3.86291 9.71077 3.5867 9.51742 3.39335L9.07548 2.9514C8.89594 2.77187 8.60591 2.75806 8.41256 2.9514L4.4489 6.91507L4.53176 3.68337C4.53176 3.40716 4.3246 3.2 4.0622 3.18619H3.45453C3.19213 3.2 2.98497 3.40716 2.98497 3.65575V9.04191C2.98497 9.29051 3.19213 9.49767 3.44072 9.49767H8.82688C9.07548 9.49767 9.28264 9.29051 9.29645 9.0281V8.42043Z" fill="#D73A49"/>
</svg>

<svg width="13" height="13" fill="none" xmlns="http://www.w3.org/2000/svg"><path d="M9.296 8.42c0-.276-.22-.47-.483-.483l-3.26.083 3.964-3.964a.451.451 0 0 0 0-.663l-.442-.442a.463.463 0 0 0-.662 0L4.449 6.915l.083-3.232a.49.49 0 0 0-.47-.497h-.607a.484.484 0 0 0-.47.47v5.386a.46.46 0 0 0 .456.456h5.386a.484.484 0 0 0 .47-.47V8.42Z" fill="#D73A49"/></svg>
